icons/Apidog-Light.svg

<?xml version="1.0" encoding="UTF-8"?>
<svg id="apidog" width="256" height="256" fill="none" title="ApiDog" version="1.1" viewBox="0 0 256 256" xmlns="http://www.w3.org/2000/svg">
 <style>#apidog {
    rect {fill: #15191C}

    @media (prefers-color-scheme: light) {
        rect {fill: #F4F2ED}
    }
}</style>
 <rect width="256" height="256" rx="40" fill="#f4f2ed"/>
 <path d="m173.87 162.24-2.828-2.822-0.53-0.483c-11.274-10.958-26.376-17.086-42.097-17.083-15.733 0-30.836 6.128-42.097 17.089l-0.3654 0.353-2.7931 2.829-5.9809 5.969c-1.6927 1.711-3.7079 3.07-5.9291 3.997-2.2211 0.928-4.6041 1.406-7.0111 1.406-4.8352 2e-3 -9.4737-1.914-12.899-5.327-1.6922-1.687-3.0349-3.692-3.951-5.9-0.916-2.207-1.3876-4.573-1.3876-6.963s0.4716-4.757 1.3876-6.964c0.9161-2.207 2.2588-4.212 3.951-5.9l12.899-12.869-12.74-12.663c-1.7245-1.681-3.098-3.688-4.0406-5.904-0.9426-2.217-1.4357-4.598-1.4505-7.006s0.449-4.7957 1.3643-7.0233 2.264-4.2512 3.9677-5.9533c3.4243-3.4148 8.0629-5.3324 12.899-5.3324s9.4746 1.9176 12.899 5.3324l9.3398 9.3106c11.279 10.95 26.382 17.074 42.103 17.071 15.727 0 30.83-6.129 42.097-17.071 0.114-0.154 0.251-0.289 0.406-0.401l5.292-5.3269 3.523-3.4648c1.684-1.6955 3.687-3.0395 5.895-3.954 2.207-0.9145 4.574-1.3812 6.963-1.3729 4.833 0 9.469 1.9155 12.893 5.3269 2.561 2.5482 4.303 5.8019 5.005 9.3457 0.703 3.543 0.332 7.216-1.063 10.548-0.938 2.225-2.317 4.237-4.054 5.916l-12.781 12.746 12.781 12.745c1.733 1.688 3.109 3.707 4.046 5.937 0.938 2.23 1.417 4.626 1.411 7.045 0 4.82-1.921 9.445-5.345 12.857-3.417 3.413-8.049 5.329-12.878 5.329s-9.461-1.916-12.878-5.329l-6.064-6.046 0.041 6e-3z" fill="url(#linearGradient1)"/>
 <path d="m161.19 47.373c2.216 0.9134 4.225 2.2569 5.917 3.9481 3.401 3.4124 5.308 8.0363 5.3 12.854s-1.929 9.4358-5.342 12.837l-12.899 12.864-0.324 0.2828c-6.805 6.6319-15.932 10.344-25.435 10.344s-18.63-3.7119-25.435-10.344l-0.325-0.2828-12.904-12.864c-3.3834-3.4161-5.2746-8.0342-5.2591-12.842 0.0154-4.808 1.9363-9.4139 5.3416-12.808 3.4103-3.407 8.0315-5.3242 12.852-5.3319 4.821-0.0077 9.448 1.8946 12.869 5.2907l12.905 12.864 12.858-12.864c3.425-3.4128 8.064-5.3267 12.899-5.321 2.398-0.0059 4.773 0.4596 6.982 1.3729z" fill="url(#linearGradient2)"/>
 <path d="m95.698 209.62c-2.213-0.913-4.2236-2.255-5.9162-3.948-3.4014-3.413-5.308-8.036-5.3003-12.855 0.0078-4.818 1.9292-9.435 5.3416-12.837l12.905-12.869 0.318-0.277c6.806-6.634 15.934-10.347 25.439-10.347 9.504 0 18.632 3.713 25.438 10.347l0.324 0.277 12.899 12.869c3.383 3.416 5.274 8.034 5.259 12.842s-1.936 9.414-5.342 12.809c-3.41 3.407-8.031 5.324-12.852 5.332-4.82 7e-3 -9.448-1.895-12.869-5.291l-12.899-12.87-12.857 12.87c-1.697 1.691-3.709 3.031-5.924 3.944-2.214 0.913-4.586 1.381-6.981 1.377-2.395 7e-3 -4.7685-0.46-6.9829-1.373z" fill="url(#linearGradient3)"/>
 <linearGradient id="linearGradient1" x1="46" x2="241.87" y1="48.908" y2="104.36" gradientUnits="userSpaceOnUse">
  <stop stop-color="#3bf" offset="0"/>
  <stop stop-color="#33f" offset="1"/>
 </linearGradient>
 <linearGradient id="linearGradient2" x1="215.68" x2="-.41188" y1="217.69" y2="134.42" gradientUnits="userSpaceOnUse">
  <stop stop-color="#99C2FF" offset="0"/>
  <stop stop-color="#EBF3FF" offset="1"/>
 </linearGradient>
 <linearGradient id="linearGradient3" x1="128.4" x2="105.29" y1="210.99" y2="159.43" gradientUnits="userSpaceOnUse">
  <stop stop-color="#99C2FF" offset="0"/>
  <stop stop-color="#EBF3FF" offset="1"/>
 </linearGradient>
</svg>

<?xml version="1.0" encoding="UTF-8" standalone="no"?>
<svg
   width="256"
   height="256"
   title="ApiDog"
   viewBox="0 0 256 256"
   fill="none"
   id="apidog"
   version="1.1"
   sodipodi:docname="Apidog-Light.svg"
   inkscape:version="1.4.2 (ebf0e940, 2025-05-08)"
   xmlns:inkscape="http://www.inkscape.org/namespaces/inkscape"
   xmlns:sodipodi="http://sodipodi.sourceforge.net/DTD/sodipodi-0.dtd"
   xmlns="http://www.w3.org/2000/svg"
   xmlns:svg="http://www.w3.org/2000/svg">
  <defs
     id="defs8" />
  <sodipodi:namedview
     id="namedview8"
     pagecolor="#ffffff"
     bordercolor="#000000"
     borderopacity="0.25"
     inkscape:showpageshadow="2"
     inkscape:pageopacity="0.0"
     inkscape:pagecheckerboard="0"
     inkscape:deskcolor="#d1d1d1"
     inkscape:zoom="1.0664891"
     inkscape:cx="47.351635"
     inkscape:cy="134.08483"
     inkscape:window-width="1512"
     inkscape:window-height="921"
     inkscape:window-x="0"
     inkscape:window-y="61"
     inkscape:window-maximized="0"
     inkscape:current-layer="apidog" />
  <style
     id="style1">
#apidog {
    rect {fill: #15191C}

    @media (prefers-color-scheme: light) {
        rect {fill: #F4F2ED}
    }
}
</style>
  <rect
     width="256"
     height="256"
     rx="40"
     fill="#15191C"
     id="rect1"
     style="fill:#f4f2ed;fill-opacity:1" />
  <path
     d="M173.869 162.243L171.041 159.421L170.511 158.938C159.237 147.98 144.135 141.852 128.414 141.855C112.681 141.855 97.5778 147.983 86.3171 158.944L85.9517 159.297L83.1586 162.126L77.1777 168.095C75.485 169.806 73.4698 171.165 71.2486 172.092C69.0275 173.02 66.6445 173.498 64.2375 173.498C59.4023 173.5 54.7638 171.584 51.3386 168.171C49.6464 166.484 48.3037 164.479 47.3876 162.271C46.4716 160.064 46 157.698 46 155.308C46 152.918 46.4716 150.551 47.3876 148.344C48.3037 146.137 49.6464 144.132 51.3386 142.444L64.2375 129.575L51.4977 116.912C49.7732 115.231 48.3997 113.224 47.4571 111.008C46.5145 108.791 46.0214 106.41 46.0066 104.002C45.9918 101.594 46.4556 99.2063 47.3709 96.9787C48.2862 94.7511 49.6349 92.7275 51.3386 91.0254C54.7629 87.6106 59.4015 85.693 64.2375 85.693C69.0735 85.693 73.7121 87.6106 77.1364 91.0254L86.4762 100.336C97.7553 111.286 112.858 117.41 128.579 117.407C144.306 117.407 159.409 111.278 170.676 100.336C170.79 100.182 170.927 100.047 171.082 99.935L176.374 94.6081L179.897 91.1433C181.581 89.4478 183.584 88.1038 185.792 87.1893C187.999 86.2748 190.366 85.8081 192.755 85.8164C197.588 85.8164 202.224 87.7319 205.648 91.1433C208.209 93.6915 209.951 96.9452 210.653 100.489C211.356 104.032 210.985 107.705 209.59 111.037C208.652 113.262 207.273 115.274 205.536 116.953L192.755 129.699L205.536 142.444C207.269 144.132 208.645 146.151 209.582 148.381C210.52 150.611 210.999 153.007 210.993 155.426C210.993 160.246 209.072 164.871 205.648 168.283C202.231 171.696 197.599 173.612 192.77 173.612C187.941 173.612 183.309 171.696 179.892 168.283L173.828 162.237L173.869 162.243Z"
     fill="url(#linearGradient1)"
     id="path1" />
  <path
     d="M161.188 47.373C163.404 48.2864 165.413 49.6299 167.105 51.3211C170.506 54.7335 172.413 59.3574 172.405 64.1755C172.397 68.9936 170.476 73.6113 167.063 77.0128L154.164 89.8764L153.84 90.1592C147.035 96.7911 137.908 100.503 128.405 100.503C118.902 100.503 109.775 96.7911 102.97 90.1592L102.645 89.8764L89.7407 77.0128C86.3573 73.5967 84.4661 68.9786 84.4816 64.1705C84.497 59.3625 86.4179 54.7566 89.8232 51.3623C93.2335 47.9553 97.8547 46.0381 102.675 46.0304C107.496 46.0227 112.123 47.925 115.544 51.3211L128.449 64.1846L141.307 51.3211C144.732 47.9083 149.371 45.9944 154.206 46.0001C156.604 45.9942 158.979 46.4597 161.188 47.373Z"
     fill="url(#linearGradient2)"
     id="path2" />
  <path
     d="M95.6981 209.62C93.4851 208.707 91.4745 207.365 89.7819 205.672C86.3805 202.259 84.4739 197.636 84.4816 192.817C84.4894 187.999 86.4108 183.382 89.8232 179.98L102.728 167.111L103.046 166.834C109.852 160.2 118.98 156.487 128.485 156.487C137.989 156.487 147.117 160.2 153.923 166.834L154.247 167.111L167.146 179.98C170.529 183.396 172.42 188.014 172.405 192.822C172.39 197.63 170.469 202.236 167.063 205.631C163.653 209.038 159.032 210.955 154.211 210.963C149.391 210.97 144.763 209.068 141.342 205.672L128.443 192.802L115.586 205.672C113.889 207.363 111.877 208.703 109.662 209.616C107.448 210.529 105.076 210.997 102.681 210.993C100.286 211 97.9125 210.533 95.6981 209.62Z"
     fill="url(#linearGradient3)"
     id="path3" />
  <linearGradient
     id="linearGradient1"
     x1="45.9999"
     y1="48.9077"
     x2="241.866"
     y2="104.358"
     gradientUnits="userSpaceOnUse">
    <stop
       stop-color="#33BBFF"
       id="stop3" />
    <stop
       offset="1"
       stop-color="#3333FF"
       id="stop4" />
  </linearGradient>
  <linearGradient
     id="linearGradient2"
     x1="215.683"
     y1="217.694"
     x2="-0.411885"
     y2="134.42"
     gradientUnits="userSpaceOnUse">
    <stop
       stop-color="#99C2FF"
       id="stop5" />
    <stop
       offset="1"
       stop-color="#EBF3FF"
       id="stop6" />
  </linearGradient>
  <linearGradient
     id="linearGradient3"
     x1="128.396"
     y1="210.993"
     x2="105.291"
     y2="159.433"
     gradientUnits="userSpaceOnUse">
    <stop
       stop-color="#99C2FF"
       id="stop7" />
    <stop
       offset="1"
       stop-color="#EBF3FF"
       id="stop8" />
  </linearGradient>
</svg>
